assets/azuresignalr/original.svg

<svg height="18" viewBox="0 0 18 18" width="18" xmlns="http://www.w3.org/2000/svg" xmlns:xlink="http://www.w3.org/1999/xlink"><radialGradient id="a" cx="9" cy="9" gradientUnits="userSpaceOnUse" r="8.5"><stop offset=".18" stop-color="#5ea0ef"/><stop offset="1" stop-color="#0078d4"/></radialGradient><clipPath id="b"><path d="m14.21 15.72a8.5 8.5 0 0 1 -10.42-13.44l.09-.06a8.5 8.5 0 0 1 10.33 13.5"/></clipPath><path d="m14.21 15.72a8.5 8.5 0 0 1 -10.42-13.44l.09-.06a8.5 8.5 0 0 1 10.33 13.5" fill="url(#a)"/><g clip-path="url(#b)"><path d="m4.13 7.05a.28.28 0 0 0 .2.48h6.12a1.55 1.55 0 0 1 1.15.47 1.6 1.6 0 0 1 .43.92 1.43 1.43 0 0 1 -.36 1.15 1.41 1.41 0 0 1 -1.12.54h-2.11a.08.08 0 0 0 -.09.06l-.54 1.33c-.12.29-.25.59-.37.89a.08.08 0 0 0 0 .09l1.56 1.5 2.59 2.59.46.49 2.14-1.19-.47-.37-1.43-1.44-1.55-1.56h-.07l.52-.07a3.84 3.84 0 0 0 2.81-2.28 3.85 3.85 0 0 0 0-3.08 3.9 3.9 0 0 0 -.73-1.12 3.7 3.7 0 0 0 -1.24-.89 4 4 0 0 0 -1.66-.34h-3v-1.17a.14.14 0 0 0 -.19-.05z" fill="#f2f2f2"/></g></svg>

<svg xmlns="http://www.w3.org/2000/svg" id="a7e39c7a-0f50-4fda-b0dc-8e20d54e1945" width="18" height="18" viewBox="0 0 18 18"><defs><radialGradient id="bb4c4c3f-f7a9-416e-87c4-f79d59529ddb" cx="9" cy="9" r="8.5" gradientUnits="userSpaceOnUse"><stop offset=".18" stop-color="#5ea0ef"/><stop offset="1" stop-color="#0078d4"/></radialGradient><clipPath id="bf38dd48-418e-4b19-93f3-eac77c97feef"><path id="a2f8fbdd-34b1-4cd6-8ce3-9f41841a5fd9" fill="none" d="M14.21 15.72A8.5 8.5 0 0 1 3.79 2.28l.09-.06a8.5 8.5 0 0 1 10.33 13.5"/></clipPath></defs><title>Icon-web-52</title><path id="a9e07728-1645-4b38-9a48-dd4b9b350c00" fill="url(#bb4c4c3f-f7a9-416e-87c4-f79d59529ddb)" d="M14.21 15.72A8.5 8.5 0 0 1 3.79 2.28l.09-.06a8.5 8.5 0 0 1 10.33 13.5"/><g clip-path="url(#bf38dd48-418e-4b19-93f3-eac77c97feef)"><path fill="#f2f2f2" d="M4.13 7.05a.28.28 0 0 0 .2.48h6.12A1.55 1.55 0 0 1 11.6 8a1.6 1.6 0 0 1 .43.92 1.43 1.43 0 0 1-.36 1.15 1.41 1.41 0 0 1-1.12.54H8.44a.08.08 0 0 0-.09.06L7.81 12c-.12.29-.25.59-.37.89a.08.08 0 0 0 0 .09L9 14.48l2.59 2.59.46.49 2.14-1.19-.47-.37-1.43-1.44L10.74 13h-.07l.52-.07A3.84 3.84 0 0 0 14 10.65a3.85 3.85 0 0 0 0-3.08 3.9 3.9 0 0 0-.73-1.12 3.7 3.7 0 0 0-1.24-.89 4 4 0 0 0-1.66-.34h-3V4.05A.14.14 0 0 0 7.18 4Z"/></g></svg>
